dist/svg/link-break.svg

<svg width="16" height="16" viewBox="0 0 16 16" fill="rgb(34, 34, 34)" xmlns="http://www.w3.org/2000/svg"><title>link-break</title><path d="M5.10001 12L4.00001 10.9L6.40001 8.49998L7.50001 9.49998L5.10001 12ZM9.60001 3.19998C10.5 2.29998 11.9 2.29998 12.8 3.19998C13.7 4.09998 13.7 5.49998 12.8 6.39998L11 8.19998L12.1 9.29998L13.9 7.49998C15.4 5.99998 15.4 3.59998 13.9 2.09998C12.4 0.599976 10 0.599976 8.50001 2.09998L6.70001 3.89998L7.80001 4.99998L9.60001 3.19998ZM12 5.09998L10.9 3.99998L7.80001 7.09998L1.90001 1.29998L1.20001 1.99998L14.1 14.8L14.8 14.1L8.90001 8.19998L12 5.09998ZM6.40001 12.8C5.50001 13.7 4.10001 13.7 3.20001 12.8C2.30001 11.9 2.30001 10.5 3.20001 9.59998L5.00001 7.79998L3.90001 6.69998L2.10001 8.49998C0.600006 9.99998 0.600006 12.4 2.10001 13.9C3.60001 15.4 6.00001 15.4 7.40001 13.9L9.20001 12.1L8.20001 11L6.40001 12.8Z" fill="rgb(34, 34, 34)" fill-opacity="1.00"/></svg>

<!-- Generated by Trend Micro Style Portal -->
<svg version="1.1" xmlns="http://www.w3.org/2000/svg" width="16" height="16" viewBox="0 0 16 16">
  <title>link-break</title>
  <path fill="rgb(34,34,34)" d="M5.1 12l-1.1-1.1 2.4-2.4 1.1 1-2.4 2.5zM9.6 3.2c0.9-0.9 2.3-0.9 3.2 0s0.9 2.3 0 3.2v0l-1.8 1.8 1.1 1.1 1.8-1.8c1.5-1.5 1.5-3.9 0-5.4s-3.9-1.5-5.4 0l-1.8 1.8 1.1 1.1 1.8-1.8zM12 5.1l-1.1-1.1-3.1 3.1-5.9-5.8-0.7 0.7 12.9 12.8 0.7-0.7-5.9-5.9 3.1-3.1zM6.4 12.8c-0.9 0.9-2.3 0.9-3.2 0s-0.9-2.3 0-3.2l1.8-1.8-1.1-1.1-1.8 1.8c-1.5 1.5-1.5 3.9 0 5.4s3.9 1.5 5.3 0l1.8-1.8-1-1.1-1.8 1.8z"></path>
</svg>
